!!!CDT:
!!!PTL: Musiche sacre e morali a una, due e tre voci
!!!PPP: Rome
!!!PPR: Lodovico Grignani
!!!PDT: 1640
!!!RISM: M 1676
!!!rime:
!!!AGN: Madrigal
!!!SCT: Tsg17061a
!!!SCA: Tsg17061a
!!!voices:
!!!COM: Mazzocchi, Domenico
!!!OTL: Signor, non sotto l'ombra in piaggia molle
**kern	**text	**kern	**text	**dynam	**kern	**text	**dynam
*part3	*part3	*part2	*part2	*part2	*part1	*part1	*part1
*staff3	*staff3	*staff2	*staff2	*	*staff1	*staff1	*
*I"Basso continuo	*	*I"Canto II	*	*	*I"Canto I	*	*
*I'Bc	*	*I'C II	*	*	*I'C I	*	*
*oclefF4	*	*oclefC1	*	*	*oclefC1	*	*
*clefF4	*	*clefG2	*	*	*clefG2	*	*
*k[]	*	*k[]	*	*	*k[]	*	*
*C:	*	*C:	*	*	*C:	*	*
*omet(C)	*	*omet(C)	*	*	*omet(C)	*	*
*M4/4	*	*M4/4	*	*	*M4/4	*	*
=1	=1	=1	=1	=1	=1	=1	=1
!!LO:TX:a:t=OTTAVA. A 2. Soprano. Eccitamento alle Virtù.
1GG	.	4r	.	.	4r	.	.
.	.	4f#X	Si-	.	4a	Si-	.
.	.	2g	-gnor,	.	2b	-gnor,	.
=2	=2	=2	=2	=2	=2	=2	=2
1GG	.	2r	.	.	8r	.	.
.	.	.	.	.	8dd	non	.
.	.	.	.	.	8.b	sot-	.
.	.	.	.	.	16dd	-to	.
.	.	8r	.	.	4g	l'om-	.
.	.	8b	in	.	.	.	.
.	.	8.g	piag-	.	4g	-bra	.
.	.	16a	-gia	.	.	.	.
=3	=3	=3	=3	=3	=3	=3	=3
1GG	.	16bL	mol-	.	2r	.	.
.	.	16cc	.	.	.	.	.
.	.	16dd	.	.	.	.	.
.	.	16ccJ	.	.	.	.	.
.	.	16bL	.	.	.	.	.
.	.	16a	.	.	.	.	.
.	.	16g	.	.	.	.	.
.	.	16f#XJ	.	.	.	.	.
.	.	4g	.	.	4r	.	.
.	.	4g	-le	.	8r	.	.
.	.	.	.	.	8f#X	Tra	.
=4	=4	=4	=4	=4	=4	=4	=4
1GG	.	2r	.	.	4g	fon-	.
.	.	.	.	.	8g	-ti	.
.	.	.	.	.	8a	e	.
.	.	4r	.	.	4b	fior,	.
.	.	8r	.	.	4r	.	.
.	.	8cc	tra	.	.	.	.
=5	=5	=5	=5	=5	=5	=5	=5
1GG	.	8dd	Nin-	.	2r	.	.
.	.	16dd	-fe	.	.	.	.
.	.	16cc	e	.	.	.	.
.	.	8b	tra	.	.	.	.
.	.	8a	Si-	.	.	.	.
.	.	4b	-re-	.	4r	.	.
.	.	4g	-ne,	.	4dd	Si-	.
=6	=6	=6	=6	=6	=6	=6	=6
1C	.	4r	.	.	2ee	-gnor,	.
.	.	4cc	Si-	.	.	.	.
.	.	2ee	-gnor,	.	8r	.	.
.	.	.	.	.	8gg	non	.
.	.	.	.	.	8.ee	sot-	.
.	.	.	.	.	16gg	-to	.
=7	=7	=7	=7	=7	=7	=7	=7
1C	.	8r	.	.	4cc	l'om-	.
.	.	8gg	non	.	.	.	.
.	.	8.ee	sot-	.	4cc	-bra	.
.	.	16gg	-to	.	.	.	.
.	.	4cc	l'om-	.	8r	.	.
.	.	.	.	.	8ee	in	.
.	.	4cc	-bra	.	8.cc	piag-	.
.	.	.	.	.	16dd	-gia	.
=8	=8	=8	=8	=8	=8	=8	=8
1C	.	8r	.	.	16eeL	mol-	.
.	.	.	.	.	16ff	.	.
.	.	8ee	in	.	16gg	.	.
.	.	.	.	.	16ffJ	.	.
.	.	8.cc	piag-	.	16eeL	.	.
.	.	.	.	.	16dd	.	.
.	.	.	.	.	16cc	.	.
.	.	16dd	-gia	.	16bJ	.	.
.	.	16eeL	mol-	.	[4cc	.	.
.	.	16ff	.	.	.	.	.
.	.	16gg	.	.	.	.	.
.	.	16ffJ	.	.	.	.	.
.	.	16eeL	.	.	16cc]L	.	.
.	.	16dd	.	.	16b	.	.
.	.	16cc	.	.	16cc	.	.
.	.	16bJ	.	.	16ddJ	.	.
=9	=9	=9	=9	=9	=9	=9	=9
2C	.	8.ccL	.	.	8.eeL	.	.
.	.	16bJ	.	.	16ddJ	.	.
.	.	8.b	.	.	8.dd	.	.
.	.	(16a	-le	.	(16cc	-le	.
2GG	.	2b)	.	.	2dd)	.	.
=10	=10	=10	=10	=10	=10	=10	=10
1GG	.	1r	.	.	4r	.	.
.	.	.	.	.	8r	.	.
.	.	.	.	.	8d	Tra	.
.	.	.	.	.	4e	fon-	.
.	.	.	.	.	8e	-ti	.
.	.	.	.	.	8f#X	e	.
=11	=11	=11	=11	=11	=11	=11	=11
1GG	.	4r	.	.	4g	fior,	.
.	.	8r	.	.	8r	.	.
.	.	8f#X	Tra	.	8a	Tra	.
.	.	4g	fon-	.	4b	fon-	.
.	.	8g	-ti	.	8b	-ti	.
.	.	8a	e	.	8cc	e	.
=12	=12	=12	=12	=12	=12	=12	=12
1GG	.	8.bL	fior,	.	8.ddL	fior,	.
.	.	16aJ	.	.	16ccJ	.	.
.	.	16gL	.	.	16bL	.	.
.	.	16f#X	.	.	16a	.	.
.	.	16g	.	.	16b	.	.
.	.	16aJ	.	.	16f#XJ	.	.
.	.	16bL	.	.	16gL	.	.
.	.	16cc	.	.	16a	.	.
.	.	16dd	.	.	16b	.	.
.	.	16ccJ	.	.	16aJ	.	.
.	.	16bL	.	.	16gL	.	.
.	.	16a	.	.	16f#i	.	.
.	.	16b	.	.	16g	.	.
.	.	16gJ	.	.	16eJ	.	.
=13	=13	=13	=13	=13	=13	=13	=13
2D	.	4a	.	.	2f#X	.	.
.	.	8r	.	.	.	.	.
.	.	8b	tra	.	.	.	.
2AA	.	8cc	Nin-	.	4r	.	.
.	.	16cc	-fe	.	.	.	.
.	.	16b	e	.	.	.	.
.	.	8.a	tra	.	8r	.	.
.	.	.	.	.	8b	tra	.
.	.	16g	Si-	.	.	.	.
=14	=14	=14	=14	=14	=14	=14	=14
1AA	.	4a	-re-	.	8cc	Nin-	.
.	.	.	.	.	16cc	-fe	.
.	.	.	.	.	16b	e	.
.	.	8a	-ne,	.	8.a	tra	.
.	.	8dd	tra	.	.	.	.
.	.	.	.	.	16g	Si-	.
.	.	8dd	Nin-	.	(8.aL	-re-	.
.	.	16dd	-fe	.	.	.	.
.	.	16cc	e	.	16bJ	.	.
.	.	8.dd	tra	.	[4cc)	.	.
.	.	16cc	Si-	.	.	.	.
=15	=15	=15	=15	=15	=15	=15	=15
2GG	.	2dd	-re-	.	4cc]	.	.
.	.	.	.	.	(4b	-ne,	.
2C	.	4cc	-ne,	.	2cc)	.	.
.	.	8r	.	.	.	.	.
.	.	8e	Ma in	.	.	.	.
=16	=16	=16	=16	=16	=16	=16	=16
4BB	.	8f#X	ci-	.	4r	.	.
.	.	8g#X	-ma al-	.	.	.	.
4AA	.	4a	-l'er-	.	8r	.	.
.	.	.	.	.	8e	Ma in	.
2AA	.	8a	-to	.	8f#X	ci-	.
.	.	8b	e	.	8g#X	-ma al-	.
.	.	8cc	fa-	.	4a	-l'er-	.
.	.	8dd	-fi-	.	.	.	.
=17	=17	=17	=17	=17	=17	=17	=17
2AA	.	2.ee	-co-	.	8a	-to	.
.	.	.	.	.	8cc	e	.
.	.	.	.	.	8dd	fa-	.
.	.	.	.	.	8ee	-ti-	.
2D	.	.	.	.	[2ff	-co-	.
.	.	4cc#X	-so	.	.	.	.
=18	=18	=18	=18	=18	=18	=18	=18
2BB-X	.	2dd	col-	.	4ff]	.	.
.	.	.	.	.	4dd	-so	.
[2AA	.	8dd	-le	.	2ee	col-	.
.	.	8dd	Del-	.	.	.	.
.	.	8cc#X	-la	.	.	.	.
.	.	8b	Vir-	.	.	.	.
=19	=19	=19	=19	=19	=19	=19	=19
2AA]	.	2cc#X	-tì	.	8ee	-le	.
.	.	.	.	.	8ee	Del-	.
.	.	.	.	.	8ee	-la	.
.	.	.	.	.	8ff	Vir-	.
2FF#X	.	4r	.	.	2dd	-tù	.
.	.	4a	ri-	.	.	.	.
=20	=20	=20	=20	=20	=20	=20	=20
2GG	.	2.b-X	-po-	.	4r	.	.
.	.	.	.	.	4dd	ri-	.
2C	.	.	.	.	[2ee-X	-po-	.
.	.	8b-i	-sto	.	.	.	.
.	.	8a	è il	.	.	.	.
=21	=21	=21	=21	=21	=21	=21	=21
1C	.	4g	no-	.	4ee-]	.	.
.	.	4f	-stro	.	8ee-i	-sto	.
.	.	.	.	.	8dd	è il	.
.	.	16eL	be-	.	4cc	no-	.
.	.	16d	.	.	.	.	.
.	.	16e	.	.	.	.	.
.	.	16fJ	.	.	.	.	.
.	.	[4g	.	.	4b-X	-stro	.
=22	=22	=22	=22	=22	=22	=22	=22
2D	.	4g]	.	.	2a	be-	.
.	.	(4f#X	-ne,	.	.	.	.
2GG	.	4g)	.	.	2g	-ne,	.
.	.	8r	.	.	.	.	.
.	.	8d	Ma in	.	.	.	.
=23	=23	=23	=23	=23	=23	=23	=23
[1GG	.	8e	ci-	.	8r	.	.
.	.	8f#X	-ma al-	.	8d	Ma in	.
.	.	4g	-l'er-	.	8e	ci-	.
.	.	.	.	.	8f#X	-ma al-	.
.	.	8g	-to	.	4g	-l'er-	.
.	.	8a	e	.	.	.	.
.	.	8b	fa-	.	8g	-to	.
.	.	8cc	-ti-	.	8a	e	.
=24	=24	=24	=24	=24	=24	=24	=24
4GG]	.	8dd	-co-	.	8b	fa-	.
.	.	8ee	-so	.	8cc	-ti-	.
4D	.	8ff	col-	.	8dd	-co-	.
.	.	8cc#X	-le	.	8ee	-so	.
4.BB-X	.	4.dd	Del-	.	8ff	col-	.
.	.	.	.	.	8ee	-le	.
.	.	.	.	.	8gg	Del-	.
8GG	.	16ee	-la	.	16cc#X	-la	.
.	.	16ff	Vir-	.	16b	Vir-	.
=25	=25	=25	=25	=25	=25	=25	=25
1AA	#b	4ee	-tì	.	2cc#X	-tì	.
.	.	4a	ri-	.	.	.	.
.	.	[2ee	-po-	.	4r	.	.
.	.	.	.	.	4ccnXi	ri-	.
=26	=26	=26	=26	=26	=26	=26	=26
2D	.	4ee]	.	.	2.ff	-po-	.
.	.	8ee	-sto	.	.	.	.
.	.	8dd	è il	.	.	.	.
2A	.	[2cc	no-	.	.	.	.
.	.	.	.	.	8ff	-sto	.
.	.	.	.	.	8ee	è il	.
=27	=27	=27	=27	=27	=27	=27	=27
4F#X	.	4cc]	.	.	2.dd	nos-	.
4G#X	.	16bL	-stro	.	.	.	.
.	.	16cc	.	.	.	.	.
.	.	16dd	.	.	.	.	.
.	.	16ccJ	.	.	.	.	.
2A	.	[2a	be-	.	.	.	.
.	.	.	.	.	16ccL	-tro	.
.	.	.	.	.	16dd	.	.
.	.	.	.	.	16ee	.	.
.	.	.	.	.	16ddJ	.	.
=28	=28	=28	=28	=28	=28	=28	=28
1E	.	2a]	.	.	1b	be-	.
.	.	(2g#X	-ne,	.	.	.	.
=29	=29	=29	=29	=29	=29	=29	=29
1AA	.	2a)	.	.	4a	-ne,	.
.	.	.	.	.	4a	ri-	.
.	.	4r	.	.	[2cc	-po-	.
.	.	4e	ri-	.	.	.	.
=30	=30	=30	=30	=30	=30	=30	=30
2D	.	4f#X	-po-	.	4cc]	.	.
.	.	8f#i	-sto	.	8cc	-sto	.
.	.	8d	è il	.	8b	è il	.
2E	.	4.g	no-	.	4a	no-	.
.	.	.	.	.	4g	-stro	.
.	.	8e	-stro	.	.	.	.
=31	=31	=31	=31	=31	=31	=31	=31
4D	.	4f#X	be-	.	1a	be-	.
4C#X	.	2g	.	.	.	.	.
2D	.	.	.	.	.	.	.
.	.	(4f#X	-ne.	.	.	.	.
=32	=32	=32	=32	=32	=32	=32	=32
1GG	.	1g)	.	.	1g	-ne.	.
=33:|!	=33:|!	=33:|!	=33:|!	=33:|!	=33:|!	=33:|!	=33:|!
2D	.	2r	.	.	4r	.	.
.	.	.	.	.	8f#X	Chi	.
.	.	.	.	.	8f#i	non	.
2GG	.	4r	.	.	8.g	ge-	.
.	.	.	.	.	16g	-la,	.
.	.	8g	e	p	4r	.	.
.	.	8g	non	.	.	.	.
=34	=34	=34	=34	=34	=34	=34	=34
2D	.	8.a	su-	.	8r	.	.
.	.	.	.	.	8a	e	f
.	.	16a	-da,	.	.	.	.
.	.	4r	.	.	8a	non	.
.	.	.	.	.	8a	s'e-	.
2G	.	2r	.	.	8.b	-stol-	.
.	.	.	.	.	16b	-le	.
.	.	.	.	.	8r	.	.
.	.	.	.	.	16a	Da	.
.	.	.	.	.	16b	le	.
=35	=35	=35	=35	=35	=35	=35	=35
2A	.	4r	.	.	4cc#X	vie	.
.	.	8e	Chi	.	8cc#i	del	.
.	.	8e	non	.	8b	pia-	.
2D	.	8.f#X	ge-	.	4dd	-cer,	.
.	.	16f#i	-la,	.	.	.	.
.	.	4r	.	.	8f#X	e	p
.	.	.	.	.	8f#i	non	.
=36	=36	=36	=36	=36	=36	=36	=36
2E	.	8r	.	.	8.g#X	su-	.
.	.	8b	e	f	.	.	.
.	.	.	.	.	16g#i	-da,	.
.	.	8b	non	.	4r	.	.
.	.	8b	s'e-	.	.	.	.
2AA	.	8.cc#X	-stol-	.	2r	.	.
.	.	16cc#i	-le	.	.	.	.
.	.	8r	.	.	.	.	.
.	.	16b	Da	.	.	.	.
.	.	16cc#X	le	.	.	.	.
=37	=37	=37	=37	=37	=37	=37	=37
2BB	.	4dd#X	vie	.	4r	.	.
.	.	8dd#i	del	.	8f#X	Chi	.
.	.	8cc#X	pia-	.	8f#i	non	.
2E	.	4ee	-cer,	.	8.g#X	ge-	.
.	.	.	.	.	16g#i	-la,	.
.	.	8g#X	e	.	4r	.	.
.	.	8g#i	non	p	.	.	.
=38	=38	=38	=38	=38	=38	=38	=38
2F#X	.	8a#X	su-	.	8r	.	.
.	.	16a#i	-da,	.	8cc#X	e	f
.	.	16a#i	e	.	.	.	.
.	.	8a#i	non	.	8cc#i	non	.
.	.	8a#i	s'e-	.	8cc#i	s'e-	.
2BB	.	8.b	-stol-	.	8.dd#X	-stol-	.
.	.	16b	-le	.	16dd#i	-le	.
.	.	8r	.	.	8r	.	.
.	.	16a#X	Da	.	16cc#X	Da	.
.	.	16b	le	.	16dd#X	le	.
=39	=39	=39	=39	=39	=39	=39	=39
2C#X	.	4g#X	vie	.	4ee#X	vie	.
.	.	8a#X	del	.	8ee#i	del	.
.	.	8b	pia-	.	8dd#X	pia-	.
2F#X	.	4a#X	-cer,	.	2ff#X	-cer,	.
.	.	[4cc#X	là	.	.	.	.
=40	=40	=40	=40	=40	=40	=40	=40
2BB	.	4cc#]	.	.	2.ddnXi	là	.
.	.	8g#X	non	.	.	.	.
.	.	8b	per-	.	.	.	.
[2C#X	.	4e#X	-vie-	.	.	.	.
.	.	[4f#X	.	.	8a	non	.
.	.	.	.	.	8cc#X	per-	.
=41	=41	=41	=41	=41	=41	=41	=41
2C#]	.	4f#]	.	.	2g#X	-vie-	.
.	.	(4e#X	-ne,	.	.	.	.
2FF#X	.	2f#X)	.	.	4f#X	-ne,	.
.	.	.	.	.	[4a	là	.
=42	=42	=42	=42	=42	=42	=42	=42
2BB	.	[2dd	là	.	4a]	.	.
.	.	.	.	.	8g#X	non	.
.	.	.	.	.	8b	per-	.
2C#X	.	4dd]	.	.	8eL	-vie-	.
.	.	.	.	.	16f#X	.	.
.	.	.	.	.	16g#XJ	.	.
.	.	8cc#X	non	.	[4a	.	.
.	.	8ee	per-	.	.	.	.
=43	=43	=43	=43	=43	=43	=43	=43
2E	.	2b	-vie-	.	4a]	.	.
.	.	.	.	.	(4g#X	-ne.	.
2AA	.	2a	-ne.	.	2a)	.	.
=44||	=44||	=44||	=44||	=44||	=44||	=44||	=44||
1C	.	4g	Hor	.	1r	.	.
.	.	8g	vor-	.	.	.	.
.	.	8g	-rai	.	.	.	.
.	.	2g	tu	.	.	.	.
=45	=45	=45	=45	=45	=45	=45	=45
4C	.	8r	.	.	1r	.	.
.	.	4g	lun-	.	.	.	.
4BB	.	.	.	.	.	.	.
.	.	16a	-gi	.	.	.	.
.	.	16b	dal-	.	.	.	.
[2AA	.	[4cc	-l'al-	.	.	.	.
.	.	16cc]L	.	.	.	.	.
.	.	16dd	.	.	.	.	.
.	.	16ee	.	.	.	.	.
.	.	16ff#XJ	.	.	.	.	.
=46	=46	=46	=46	=46	=46	=46	=46
2AA]	.	8ggL	.	.	1r	.	.
.	.	8ff#XJ	.	.	.	.	.
.	.	8.ff#i	.	.	.	.	.
.	.	16cc	-te	.	.	.	.
[2GG	.	2dd	ci-	.	.	.	.
=47	=47	=47	=47	=47	=47	=47	=47
2GG]	.	4dd	-me	.	1r	.	.
.	.	8r	.	.	.	.	.
.	.	8dd	Gia-	.	.	.	.
2GG#X	.	8ee	-cer,	.	.	.	.
.	.	4dd	qua-	.	.	.	.
.	.	16cc	-si	.	.	.	.
.	.	16b	tra	.	.	.	.
=48	=48	=48	=48	=48	=48	=48	=48
2AA	.	8.ccL	val-	.	1r	.	.
.	.	16bJ	.	.	.	.	.
.	.	16aL	.	.	.	.	.
.	.	16g	.	.	.	.	.
.	.	16f#X	.	.	.	.	.
.	.	16eJ	.	.	.	.	.
[2BB	.	4d#X	.	.	.	.	.
.	.	4d#i	-li	.	.	.	.
=49	=49	=49	=49	=49	=49	=49	=49
2BB]	.	8r	.	.	1r	.	.
.	.	8b	Au-	.	.	.	.
.	.	4.b	-gel	.	.	.	.
[2C	.	.	.	.	.	.	.
.	.	16ccL	.	.	.	.	.
.	.	16ddJ	.	.	.	.	.
.	.	8ee	.	.	.	.	.
.	.	8g#X	su-	.	.	.	.
=50	=50	=50	=50	=50	=50	=50	=50
2C]	.	8aL	-bli-	.	1r	.	.
.	.	8bJ	.	.	.	.	.
.	.	8.b	.	.	.	.	.
.	.	(16a	-me,	.	.	.	.
2BB	.	2b)	.	.	.	.	.
=51	=51	=51	=51	=51	=51	=51	=51
1GG	.	1r	.	.	4dd	Hor	.
.	.	.	.	.	8dd	vor-	.
.	.	.	.	.	8dd	-rai	.
.	.	.	.	.	2dd	tu	.
=52	=52	=52	=52	=52	=52	=52	=52
4G	.	1r	.	.	8r	.	.
.	.	.	.	.	4dd	lun-	.
4F#X	.	.	.	.	.	.	.
.	.	.	.	.	16ee	-gi	.
.	.	.	.	.	16ff#X	dal-	.
2E	.	.	.	.	4.gg	-l'al-	.
.	.	.	.	.	8b	-te	.
=53	=53	=53	=53	=53	=53	=53	=53
1E	.	1r	.	.	8.cc#XL	ci-	.
.	.	.	.	.	16ddJ	.	.
.	.	.	.	.	16eeL	.	.
.	.	.	.	.	16dd	.	.
.	.	.	.	.	16dd	.	.
.	.	.	.	.	16f#XJ	.	.
.	.	.	.	.	8gL	.	.
.	.	.	.	.	16a	.	.
.	.	.	.	.	16bJ	.	.
.	.	.	.	.	8.a	.	.
.	.	.	.	.	(16g	-me	.
=54	=54	=54	=54	=54	=54	=54	=54
2.D	.	1r	.	.	4a)	.	.
.	.	.	.	.	8r	.	.
.	.	.	.	.	8a	Gia-	.
.	.	.	.	.	4b	-cer,	.
4C	.	.	.	.	[4a	qua-	.
=55	=55	=55	=55	=55	=55	=55	=55
2BB	.	1r	.	.	4a]	.	.
.	.	.	.	.	8a	-si	.
.	.	.	.	.	8d	tra	.
2AA	.	.	.	.	4e	val-	.
.	.	.	.	.	4e	-li	.
=56	=56	=56	=56	=56	=56	=56	=56
4AA	.	1r	.	.	4ee	Au-	.
4A	.	.	.	.	8cc#XL	-gel	.
.	.	.	.	.	16dd	.	.
.	.	.	.	.	16eeJ	.	.
2F#X	.	.	.	.	8ff#XL	.	.
.	.	.	.	.	16ee	.	.
.	.	.	.	.	16ff#iJ	.	.
.	.	.	.	.	8ddL	.	.
.	.	.	.	.	16ccnXi	.	.
.	.	.	.	.	16ddJ	.	.
=57	=57	=57	=57	=57	=57	=57	=57
2G	.	1r	.	.	8bL	.	.
.	.	.	.	.	16cc	.	.
.	.	.	.	.	16ddJ	.	.
.	.	.	.	.	4.ee	.	.
2A	.	.	.	.	.	.	.
.	.	.	.	.	16ddL	.	.
.	.	.	.	.	16eeJ	.	.
.	.	.	.	.	8cc#XL	.	.
.	.	.	.	.	16b	.	.
.	.	.	.	.	16cc#XJ	.	.
=58	=58	=58	=58	=58	=58	=58	=58
4F#X	.	1r	.	.	8aL	.	.
.	.	.	.	.	16b	.	.
.	.	.	.	.	16cc#XJ	.	.
4D	.	.	.	.	16ddL	.	.
.	.	.	.	.	16ee	.	.
.	.	.	.	.	16ccnXi	.	.
.	.	.	.	.	16ddJ	.	.
4G	.	.	.	.	16bL	.	.
.	.	.	.	.	16cc	.	.
.	.	.	.	.	16a	.	.
.	.	.	.	.	16bJ	.	.
4E	.	.	.	.	[4g	.	.
=59	=59	=59	=59	=59	=59	=59	=59
2C#X	.	1r	.	.	8g]L	.	.
.	.	.	.	.	16f#X	.	.
.	.	.	.	.	16gJ	.	.
.	.	.	.	.	16aL	.	.
.	.	.	.	.	16b	.	.
.	.	.	.	.	16g	.	.
.	.	.	.	.	16aJ	.	.
4D	.	.	.	.	8f#i	.	.
.	.	.	.	.	16ccL	su-	.
.	.	.	.	.	16bJ	.	.
4CnXi	.	.	.	.	16aL	.	.
.	.	.	.	.	16g	.	.
.	.	.	.	.	16a	.	.
.	.	.	.	.	16eJ	.	.
=60	=60	=60	=60	=60	=60	=60	=60
2BB	.	4r	.	.	2f#X	-bli-	.
.	.	4b	Au-	.	.	.	.
4E	.	8g#XL	-gel	.	2e	-me,	.
.	.	16a	.	.	.	.	.
.	.	16bJ	.	.	.	.	.
4C#X	.	8cc#XL	.	.	.	.	.
.	.	16b	.	.	.	.	.
.	.	16cc#XJ	.	.	.	.	.
=61	=61	=61	=61	=61	=61	=61	=61
4F#X	.	8aL	.	.	1r	.	.
.	.	16b	.	.	.	.	.
.	.	16cc#XJ	.	.	.	.	.
4D	.	4.dd	.	.	.	.	.
2G	.	.	.	.	.	.	.
.	.	16ccnXiL	.	.	.	.	.
.	.	16ddJ	.	.	.	.	.
.	.	8bL	.	.	.	.	.
.	.	16cc	.	.	.	.	.
.	.	16ddJ	.	.	.	.	.
=62	=62	=62	=62	=62	=62	=62	=62
4E	.	16eeL	.	.	1r	.	.
.	.	16ff	.	.	.	.	.
.	.	16dd	.	.	.	.	.
.	.	16eeJ	.	.	.	.	.
4A	.	16ccL	.	.	.	.	.
.	.	16dd	.	.	.	.	.
.	.	16b	.	.	.	.	.
.	.	16ccJ	.	.	.	.	.
2FnXi	.	8a	.	.	.	.	.
.	.	16ffL	su-	.	.	.	.
.	.	16eeJ	.	.	.	.	.
.	.	16ddL	.	.	.	.	.
.	.	16cc	.	.	.	.	.
.	.	16dd	.	.	.	.	.
.	.	16aJ	.	.	.	.	.
=63	=63	=63	=63	=63	=63	=63	=63
2E	.	2b	-bli-	.	2r	.	.
[2A	.	2a	-me,	.	4r	.	.
.	.	.	.	.	4ee	Au-	.
=64	=64	=64	=64	=64	=64	=64	=64
4A]	.	4a	Au-	.	8cc#XL	-gel	.
.	.	.	.	.	16dd	.	.
.	.	.	.	.	16eeJ	.	.
2D	.	8f#XL	-gel	.	8ff#XL	.	.
.	.	16g	.	.	16ee	.	.
.	.	16aJ	.	.	16ff#XJ	.	.
.	.	8bL	.	.	8ddL	.	.
.	.	16a	.	.	16cc#X	.	.
.	.	16bJ	.	.	16ddJ	.	.
[4E	b	8gL	.	.	8bL	.	.
.	.	16f#i	.	.	16cc#X	.	.
.	.	16gJ	.	.	16ddJ	.	.
=65	=65	=65	=65	=65	=65	=65	=65
4E]	.	8eL	.	.	4.ee	.	.
.	.	16f#X	.	.	.	.	.
.	.	16gJ	.	.	.	.	.
2AA	.	4.a	.	.	.	.	.
.	.	.	.	.	16ddL	.	.
.	.	.	.	.	16eeJ	.	.
.	.	.	.	.	16cc#XL	.	.
.	.	.	.	.	16dd	.	.
.	.	16gL	.	.	16b	.	.
.	.	16aJ	.	.	16cc#XJ	.	.
[4D	.	16f#XL	.	.	[4a	.	.
.	.	16g	.	.	.	.	.
.	.	16e	.	.	.	.	.
.	.	16f#XJ	.	.	.	.	.
=66	=66	=66	=66	=66	=66	=66	=66
4D]	.	4.d	.	.	8a]L	.	.
.	.	.	.	.	16b	.	.
.	.	.	.	.	16cc#XJ	.	.
4BB	.	.	.	.	4.dd	.	.
.	.	16eL	.	.	.	.	.
.	.	16f#XJ	.	.	.	.	.
2GG	.	4.g	.	.	.	.	.
.	.	.	.	.	16ccnXiL	.	.
.	.	.	.	.	16ddJ	.	.
.	.	.	.	.	16bL	.	.
.	.	.	.	.	16cc	.	.
.	.	16fnXiL	.	.	16a	.	.
.	.	16gJ	.	.	16bJ	.	.
=67	=67	=67	=67	=67	=67	=67	=67
2C	.	16eL	.	.	16gL	.	.
.	.	16d	.	.	16f	.	.
.	.	16c	.	.	16e	.	.
.	.	16dJ	.	.	16fJ	.	.
.	.	16eL	.	.	16gL	.	.
.	.	16f	.	.	16a	.	.
.	.	16g	.	.	16b	.	.
.	.	16aJ	.	.	16ccJ	.	.
2BB	.	16bL	.	.	16ddL	.	.
.	.	16a	.	.	16cc	.	.
.	.	16g	.	.	16b	.	.
.	.	16aJ	.	.	16ccJ	.	.
.	.	16bL	.	.	16ddL	.	.
.	.	16cc	.	.	16ee	.	.
.	.	16dd	.	.	16ff	.	.
.	.	16bJ	.	.	16ddJ	.	.
=68	=68	=68	=68	=68	=68	=68	=68
[1E	6	16ccL	.	.	2ee	.	.
.	.	16g	.	.	.	.	.
.	.	16a	.	.	.	.	.
.	.	16bJ	.	.	.	.	.
.	.	16ccL	.	.	.	.	.
.	.	16dd	.	.	.	.	.
.	.	16ee	.	.	.	.	.
.	.	16ff#XJ	.	.	.	.	.
.	.	2gg	.	.	16r	.	.
.	.	.	.	.	16gL	.	.
.	.	.	.	.	16a	.	.
.	.	.	.	.	16bJ	.	.
.	.	.	.	.	16ccL	.	.
.	.	.	.	.	16dd	.	.
.	.	.	.	.	16ee	.	.
.	.	.	.	.	16ff#XJ	.	.
=69	=69	=69	=69	=69	=69	=69	=69
1E]	56	4r	.	.	2gg	.	.
.	.	4e	su-	.	.	.	.
.	.	[2g	-bli-	.	4r	.	.
.	.	.	.	.	4e	su-	.
=70	=70	=70	=70	=70	=70	=70	=70
1D	.	2g]	.	.	1a	-bli-	.
.	.	(2f#X	-me?	.	.	.	.
=71	=71	=71	=71	=71	=71	=71	=71
1GGl	.	1g)l	.	.	1gl	-me?	.
==	==	==	==	==	==	==	==
*-	*-	*-	*-	*-	*-	*-	*-
!!!system-decoration: [*]
!!!RDF**kern: i = editorial accidental
!!!RDF**kern: l = terminal long
!!!ENC: Emiliano Ricciardi
!!!END:
!!!EED: Ricciardi, Emiliano
!!!EEV: 2020/02/09
!!!YEC: Copyright 2018 Emiliano Ricciardi, All Rights Reserved
!!!ONB: Translated from MusicXML on 2020/02/09
!!@@BEGIN:	VERSEDATA
!!@CATALOGNUM:	Tsg17061
!!@LAST_MODIFIED: 2020/07/12
!!@TITLE:		Signor, non sotto l’ombra in piaggia molle
!!@CANTO:		XVII
!!@OTTAVA:	61
!!@MANUSRC:	G-Al, G-Au, G-Br<sub>2</sub>, G-Es<sub>1</sub>, G-Es<sub>2</sub>, G-Es<sub>3</sub>, G-F, G-Fr, G-Fr<sub>1</sub>, G-Fr<sub>2</sub>, G-Mc<sub>1</sub>, G-Mr, G-Mt, G-N
!!@PRINTSRC:	G-1580CM, G-1581B, G-1581CV, G-1581R, G-1581MR, G-1581P, G-1581V, G-1581V<sub>bis</sub>, G-1582C, G-1582M, G-1582MC, G-1582P, G-1582SC, G-1582SC<sub>bis</sub>, G-1583S, G-1584O, G-1584S, G-1585C, G-1585S, G-1588S, G-1589S, G-1590B, G-1590S, G-1592S, G-1593S, G-1594C, G-1595C, G-1597C, G-1598C, G-1599C, G-1600C, G-1600S, G-1601C, G-1601R, G-1602C, G-1604C, G-1604Cl, G-1604F, G-1604P, G-1606B, G-1606B<sub>bis</sub>, G-1606L, G-1607ZR, G-1608DP, G-1609GC, G-1610M, G-1611S, G-1611V, G-1612P, G-1613M, G-1613P, G-1613V, G-1615P, G-1616M, G-1617P, G-1619B, G-1619V, G-1620M, G-1620S, G-1621R, G-1624I, G-1624MT, G-1625C, G-1625S, G-1625SS, G-1626C, G-1626Co, G-1627M, G-1628T, G-1628Tu, G-1630L, G-1630T, G-1632FT, G-1639CF, G-1642M, G-1643I, G-1644P, G-1644S
!!@@BEGIN:	VERSES
!!@ABOUTIT:
!!@ABOUTEN:
!!@EDITOR:	Angelo Solerti
!!@EDITION_TITLE: Gerusalemme liberata. Poema eroico di Torquato Tasso. Edizione critica sui manoscritti e le prime stampe.
!!@EDITION_LOC:	Florence
!!@EDITION_PUB:	G. Barbera
!!@EDITION_DATE:  1895
!!@EDITION_VOL:
!!@EDITION_PAGE:
!!@TRANSLATOR:	Emiliano Ricciardi and Amyrose McCue Gill
!!@VERSE:
!!	Signor, non sotto l’ombra in piaggia molle
!!	Tra fonti e fior, tra Ninfe e tra Sirene;
!!	Ma in cima all’erto e faticoso colle
!!	Della virtù riposto è il nostro bene.
!!	Chi non gela, e non suda, e non s’estolle
!!	Dalle vie del piacer, là non perviene.
!!	Or vorrai tu lungi dall’alte cime
!!	Giacer, quasi tra valli augel sublime?
!!@TVERSE:
!!	Lord, not beneath the shade upon the soft shore
!!	Among founts and flowers, among Nymphs and among Sirens;
!!	But upon the peak of a steep and tiring hill
!!	Hidden from virtue is our wellbeing.
!!	He who does not freeze, and does not sweat, and does not rise
!!	Above the ways of pleasure, there he does not reach.
!!	Now will you wish, far from the high peaks,
!!	To rest, like a bird among sublime valleys?
!!@@END:		VERSES
!!@OTHER_CRIT_ED:  Torquato Tasso, <i>Gerusalemme liberata</i>, ed. Lanfranco Caretti, 2 vols. (Bari: Laterza, 1967).
!!@ATTRIBUTION_ABOUT:
!!@DATING:	mid-1560s through 1570s
!!@DEDICATEE:	Duke Alfonso II d'Este
!!@COMMENTARY:
!!@@END:		VERSEDATA
!!@@BEGIN: SETTING
!!@CATALOGNUM:	Tsg17061a
!!@CANTO:		XVII
!!@OTTAVA:	61
!!@TITLE:	Signor, non sotto l'ombra in piaggia molle
!!@COMPOSER:	Mazzocchi, Domenico
!!@PARTS:		1 of 1
!!@PRINCEPSTITLE:	Musiche sacre e morali a una, due e tre voci
!!@PRINCEPSLOC:	Rome
!!@NORMLOC:	Rome
!!@NORMPUB:	Lodovico Grignani
!!@NORMPUBSHORT:	Grignani
!!@PRINCEPSPUB:	Lodovico Grignani
!!@PRINCEPSYEAR:	1640
!!@PRINCEPSRISM:	M 1676
!!@OVOICES:	2+bc
!!@EXTANTVOICES:	2+bc
!!@OMENSURATION:	C
!!@OCLEFS:	C1,C1,F4
!!@OTIME:		
!!@OKEYSIG:	-
!!@FINAL:	(G)(G)G
!!@TIMPEDITOR:	Ricciardi, Emiliano
!!@REPRINTS:	
!!@@END: SETTING
